X:142
T:Bleinheim Castle
B:Playford<92>s Dancing Master, Vol 2, 1713-28
Z:vmp.Chris Partington 2015 www.village-music-project.org.uk
M:6/4
L:1/4
Q:3/4=80
K:Ddor
P:A
D/E|"Dm"F2A A>B"A"^c|"Dm"d2D-"G"D>EF|"C"E2G G>A"G"B|"C"c2C-"F"C>D"C/E"E|"Dm"F2A A>B"A"^c|"Dm"d>^cd "C"e>de|"Bb"f>e"G"f "A"g>fe|"Dm"f2d-d2:|
P:B
d/"C"e|"Dm"f>ef "C"g>fg|"F"a2=c- c>d"C/E"e|"Dm"f>ef "C"g>f"G/B"g|"A5"a2A- A>B"F"c|
"G"B2d- d>e"F"f|"C/E"g2G G>AB|"F"c>Bc "G"d>ef|"C"e2c c>GA|"Gm"_B>c_B "F"A>=Bc|"G"=B>^cd "A"^c>BA|"Dm"d>ef "A"e>fg|"Dm"f2d- d>dA|
"Bb"_B>c_B "F"Acf|"G"=Bdg "A"^c2e|"Dm"a>gf "A"e>fg|"Dm"f2d- d|]

